!!!COM: Mozart, Wolfgang Amadeus
!!!OTL: String Quartet No. 8 in F Major
!!!OMD: Allegro
!!!OMV: 1
!!!SCT1: K<sup>1</sup> 168
!!!SCA: Chronologisch-thematisches Verzeichnis sämtlicher Tonwerke Wolfgang Amade Mozarts (L. von Köchel; 1862, 2/1905, 3/1937, 1947)
!!!SCT2: K<sup>6</sup> 168
!!!YOR: Breitkopf & Härtel Edition
!!!ENC: Frances Bennion
!!!CDT: 1756/1/27/-1791/12/5/
!!!OCY: Österreich
!!!YEC: Copyright (c) 1994, 2000 Center for Computer Assisted Research in the Humanities
!!!YEM: Rights to all derivative editions reserved.
!!!YEM: Refer to licensing agreement for further details.
!!!YEN: United States of America
**kern	**kern	**kern	**kern
*k[b-]	*k[b-]	*k[b-]	*k[b-]
*F:	*F:	*F:	*F:
*clefC	*clefF	*clefG	*clefG
*M4/4	*M4/4	*M4/4	*M4/4
1F	4r	4r	2.ff
.	4a	4cc	.
.	4g	4b-	.
.	4f	4a	8ff
.	.	.	16ee
.	.	.	16dd
=2	=2	=2	=2
4G	4e	4b-	4cc
4B-	4e	4g	2cc
4A	4f	4a	.
4E	4g	4b-	4cc
=3	=3	=3	=3
[2F	2f	2a	4.ccc
.	.	.	8aa
4F]	4a	4cc	4ff
4r	4r	4r	4r
=4	=4	=4	=4
2D	1A	2d	2f
2C	.	2e-	2f#
=5	=5	=5	=5
[2BB-	4.B-	[2d	4.g
.	16G	.	16b-
.	16A	.	16a
4BB-]	4B-	4d]	4g
4r	4r	4r	4r
=6	=6	=6	=6
2G	1d	2b-	1r
2F	.	2b	.
=7	=7	=7	=7
2E	4g	4cc	16bb-
.	.	.	16aa
.	.	.	16gg
.	.	.	16ff
.	4c	4g	16ee
.	.	.	16dd
.	.	.	16cc
.	.	.	16b-
4F	4c	4a	16a
.	.	.	16g
.	.	.	16f
.	.	.	16e
4r	4r	4r	16d
.	.	.	16c
.	.	.	16B-
.	.	.	16A
=8	=8	=8	=8
2r	4.r	4.r	4G
.	.	.	2.r
.	8B-	8g	.
4GG	8d	8b-	.
.	8B-	8g	.
4C	8A	8f	.
.	8G	8e	.
=9	=9	=9	=9
[2FF	4.A	4.f	2r
.	16c	16a	.
.	16B-	16g	.
4FF]	4A	4f	16f
.	.	.	16a
.	.	.	16g
.	.	.	16b-
4r	4r	4r	16a
.	.	.	16cc
.	.	.	16b-
.	.	.	16dd
=10	=10	=10	=10
1FF	4a	2.ff	4cc
.	4c	.	4a
.	4B-	.	4g
.	4A	8ff	4f
.	.	16ee	.
.	.	16dd	.
=11	=11	=11	=11
4BB-	4G	4cc	4e
4GG	4B-	2cc	4e
4FF	4A	.	4f
4EE	4B-	4cc	4g
=12	=12	=12	=12
[2FF	2A	4.ccc	2f
.	.	8aa	.
4FF]	4c	4ff	4a
4r	4r	4r	4r
=13	=13	=13	=13
4r	1r	4.cc	1r
4F	.	.	.
.	.	8a	.
4A	.	8f	.
.	.	8f	.
4F	.	8f	.
.	.	8f	.
=14	=14	=14	=14
4r	4.dd	1f	1r
4BB-	.	.	.
.	8b-	.	.
4D	8g	.	.
.	8g	.	.
4BB	8g	.	.
.	8g	.	.
=15	=15	=15	=15
1C	4g	4e	4.gg
.	4b-	4g	.
.	.	.	8ee
.	4a	4f	8cc
.	.	.	8cc
.	4g	4e	8cc
.	.	.	8cc
=16	=16	=16	=16
1C	4r	4r	4.ccc
.	4cc	4a	.
.	.	.	8aa
.	4a	4cc	8ff
.	.	.	8ff
.	4f	4a	8ff
.	.	.	8ff
=17	=17	=17	=17
1D	2.B	8.f	8.ff
.	.	32g	32gg
.	.	32a	32aa
.	.	8g	8gg
.	.	8f	8ff
.	.	8e	8ee
.	.	8d	8dd
.	4F	8c	8cc
.	.	8B	8b
=18	=18	=18	=18
2C	2F	2B	2b
4CC	4E	4c	4cc
4r	4r	4r	4r
=19	=19	=19	=19
1r	1r	8.g	8.gg
.	.	16f#	16ff#
.	.	8.g	8.gg
.	.	16f#	16ff#
.	.	8.g	8.gg
.	.	16f#	16ff#
.	.	8.g	8.gg
.	.	16f#	16ff#
=20	=20	=20	=20
4C	4e	8.g	8.gg
.	.	16f#	16ff#
4BB	4f	8.g	8.gg
.	.	16f#	16ff#
4r	4r	8.g	8.gg
.	.	16f#	16ff#
4D	4d	8.g	8.gg
.	.	16f#	16ff#
=21	=21	=21	=21
2E	2c	8.g	8.gg
.	.	16f#	16ff#
.	.	8.g	8.gg
.	.	16f#	16ff#
4F	4B	8.g	8.gg
.	.	16f#	16ff#
4D	4d	8.g	8.gg
.	.	16f#	16ff#
=22	=22	=22	=22
4C	4e	8.g	8.gg
.	.	16f#	16ff#
4BB	4f	8.g	8.gg
.	.	16f#	16ff#
4r	4r	8.g	8.gg
.	.	16f#	16ff#
4D	4d	8.g	8.gg
.	.	16f#	16ff#
=23	=23	=23	=23
2E	2c	8.g	8.gg
.	.	16f#	16ff#
.	.	8.g	8.gg
.	.	16f#	16ff#
4F	4B	8.g	8.gg
.	.	16f#	16ff#
4E	4c	8.g	8.gg
.	.	16g	16gg
=24	=24	=24	=24
4c#	4e	8.a	8.aa
.	.	16g#	16gg#
4d	4f	8.a	8.aa
.	.	16a	16aa
4B	4d	8.g	8.gg
.	.	16f#	16ff#
4c	4e	8.g	8.gg
.	.	16g	16gg
=25	=25	=25	=25
4A	4c	8.f	8.ff
.	.	16e	16ee
4B	4d	8.f	8.ff
.	.	16f	16ff
4G#	4B	8.e	8.ee
.	.	16d#	16dd#
4A	4c	8.e	8.ee
.	.	16e	16ee
=26	=26	=26	=26
2F	2A	4.d	4.dd
.	.	16e	16ee
.	.	16f	16ff
2G	[2G	4e	4cc
.	.	4d	4b
=27	=27	=27	=27
1C	2G]	2e	8.cc
.	.	.	16b
.	.	.	8.cc
.	.	.	16cc
.	[2e	[2g	8.b-
.	.	.	16a
.	.	.	8.b-
.	.	.	16b-
=28	=28	=28	=28
4C#	4e]	4g]	8.a
.	.	.	16g#
4D	2d	2f	8.a
.	.	.	16a
4BB	.	.	8.g
.	.	.	16f#
4C	[4c	[4e	8.g
.	.	.	16g
=29	=29	=29	=29
4AA	4c]	4e]	8.f
.	.	.	16e
4BB	2B	2d	8.f
.	.	.	16f
4GG#	.	.	8.e
.	.	.	16d
4AA	[4A	[4c	8.e
.	.	.	16e
=30	=30	=30	=30
2FF	4A]	4c]	4.d
.	4F	4A	.
.	.	.	16f
.	.	.	16a
2GG	4E	2G	4c
.	8F	.	4B
.	8D	.	.
=31	=31	=31	=31
4C	4E	4G	4c
4C	4e	8r	8r
.	.	8e	8ee
4r	4r	8f	8ff
.	.	8g	8gg
4c	4e	8r	8r
.	.	8a	8aa
=32	=32	=32	=32
4r	4r	8f#	8ff#
.	.	8g	8gg
4B	4d	8r	8r
.	.	8d	8dd
4r	4r	8e	8ee
.	.	8f	8ff
4G	4B	8r	8r
.	.	8g	8gg
=33	=33	=33	=33
4r	4r	8d#	8dd#
.	.	8e	8ee
4A	4c	8r	8r
.	.	8cc	8ccc
4r	4r	8g#	8gg#
.	.	8a	8aa
4F	4c	8r	8r
.	.	8cc	8ccc
=34	=34	=34	=34
4r	4.r	8f#	8ff#
.	.	8g	8gg
4G	.	8r	8r
.	8c	8e	8ee
4r	8e	8g	8gg
.	4d	4f	4ff
4GG	.	.	.
.	8B	8d	8dd
=35	=35	=35	=35
4C	4c	8c	8cc
.	.	8B	8dd
4r	4G	8c	8ee
.	.	8d	8ff
4C#	4r	8e	8gg
.	.	8d	8ff
4r	4A	8e	8gg
.	.	8c#	8aa
=36	=36	=36	=36
4D	4r	8d	8ff
.	.	8g	8cc#
4r	4A	8f	8dd
.	.	8c#	8ee
4GG	4r	8d	8ff
.	.	8c	8aa
4r	4d	8B	8gg
.	.	8d	8ff
=37	=37	=37	=37
4C	4r	8c	8ee
.	.	8f	8b
4r	4G	8e	8cc
.	.	8B	8dd
4c	4r	8c	8ee
.	.	8e	8gg
4r	4c	8a	8ff
.	.	8g	8ee
=38	=38	=38	=38
4F	4r	8f	8dd
.	.	8a	8ff
4F	4A	8g	8ee
.	.	8f	8dd
4G	2G	8e	8cc
.	.	8f	8dd
4GG	.	8e	8cc
.	.	8d	8b
=39	=39	=39	=39
4C	4c	12e	12cc
.	.	12B	12dd
.	.	12c	12ee
4r	4F	12d	12ff
.	.	12e	12gg
.	.	12f	12aa
4G	4G	12e	12gg
.	.	12f	12aa
.	.	12e	12gg
4GG	4f	12d	12ff
.	.	12c	12ee
.	.	12B	12dd
=40	=40	=40	=40
4C	12e	12c	12cc
.	12d	12B	12dd
.	12c	12c	12ee
4r	12f	12d	12ff
.	12g	12e	12gg
.	12a	12f	12aa
4G	4g	12e	12gg
.	.	12f	12aa
.	.	12e	12gg
4GG	4G	12d	12ff
.	.	12c	12ee
.	.	12B	12dd
=41	=41	=41	=41
4C	2F	2B	2dd
4GG	.	.	.
4CC	8E	8c	8cc
.	4.r	4.r	4.r
4r	.	.	.
=42	=42	=42	=42
4r	4.g	1r	1r
4C	.	.	.
.	8e	.	.
4E	8c	.	.
.	8c	.	.
4A	8c	.	.
.	8c	.	.
=43	=43	=43	=43
4r	1c	4.a	1r
4F	.	.	.
.	.	8f	.
4A	.	8d	.
.	.	8d	.
4F#	.	8d	.
.	.	8d	.
=44	=44	=44	=44
4r	2B	2d	4.dd
4G	.	.	.
.	.	.	8b
4E	4c	4e	8g
.	.	.	8g
4BB	4d	4f	8g
.	.	.	8g
=45	=45	=45	=45
4C	2c	2e	4.gg
4c	.	.	.
.	.	.	8ee
4B-	2r	8r	8cc
.	.	8e	8cc
4A	.	8a	8cc#
.	.	8g	8cc#
=46	=46	=46	=46
4D	4.a	4f	4dd
4D	.	2.r	2.r
.	8f	.	.
4F	8d	.	.
.	8d	.	.
4B-	8d	.	.
.	8d	.	.
=47	=47	=47	=47
4r	1d	4.b-	1r
4G	.	.	.
.	.	8g	.
4B-	.	8e	.
.	.	8e	.
4G#	.	8e	.
.	.	8e	.
=48	=48	=48	=48
4r	2c#	2e	4.ee
4A	.	.	.
.	.	.	8cc#
4F	4d	4f	8a
.	.	.	8a
4C#	4e	4g	8a
.	.	.	8a
=49	=49	=49	=49
4r	2.d	2f	4.aa
4D	.	.	.
.	.	.	8ff
4F	.	4a	8dd
.	.	.	8dd
4D	4f	[4dd	8dd
.	.	.	8dd
=50	=50	=50	=50
4G	4b-	8dd]	[3..ee-
.	.	8dd	.
4GG	4g	8cc	.
.	.	8b	.
4AA	[2f	8cc	.
.	.	.	24ee-]
.	.	8ee-	8gg
4A	.	8dd	8ff
.	.	8cc	8ee-
=51	=51	=51	=51
4B-	2f]	8r	[3..dd
.	.	8cc	.
4BB-	.	8b-	.
.	.	8a	.
8r	8r	8b-	.
.	.	.	24dd]
8A	8d	8dd	8ff
8G	8c#	8b-	8ee
8F	8d	8a	8dd
=52	=52	=52	=52
4E	4A	8g	4cc#
.	.	8a	.
4D	2A	8f	4dd
.	.	8a	.
4C#	.	8e	4gg
.	.	8a	.
4D	[4A	8d	4ff
.	.	8dd	.
=53	=53	=53	=53
4AA	4A]	8.dd	8.ff
.	.	32cc#	32ee
.	.	32dd	32ff
4A	8A	4cc#	4ee
.	8a	.	.
4.r	8b-	2r	2r
.	8a	.	.
.	8g	.	.
8A	8f	.	.
=54	=54	=54	=54
8B-	8g	4.r	2..r
8A	8f	.	.
8G	8e	.	.
8F	8d	8a	.
8G	8c#	8b-	.
8F	8d	8a	.
8E	8c#	8g	.
8D	8d	8f	8aa
=55	=55	=55	=55
8C#	8e	8g	8bb-
8D	8f	8f	8aa
8E	8g	8e	8gg
8F	8a	8d	8ff
8B-	8e	8c#	8gg
8A	8f	8d	8ff
8G	8g	8e	8ee
8F	8a	8f	8dd
=56	=56	=56	=56
4E	4g	4b-	4cc#
8F	8f	8a	8dd
16r	16r	16r	16r
16G	16b-	16ee	16gg
4A	4a	4dd	4ff
4AA	4a 4g	8.cc#	8.ee
.	.	32b	32dd
.	.	32cc#	32ee
=57	=57	=57	=57
4D	4a 4f	4dd	4dd
2.r	2.r	3..r	8r
.	.	.	8aa
.	.	.	8bb-
.	.	.	8aa
.	.	.	8gg
.	.	24r	.
.	.	8a	8ff
=58	=58	=58	=58
2..r	4.r	8b-	8gg
.	.	8a	8ff
.	.	8g	8ee
.	8a	8f	8dd
.	8b-	8g	8ee
.	8a	8f	8dd
.	8g	8e	8cc#
8A	8f	8d	8dd
=59	=59	=59	=59
8B-	4.e	4.c#	8g
8A	.	.	8a
8G	.	.	8b-
8F	8f	8d	8a
8G	8e	8b-	8cc#
8F	8f	8a	8dd
8E	8g	8g	8ee
8D	8a	8f	8ff
=60	=60	=60	=60
4C#	4.a	4e	4gg
8D	.	8d	8ff
16r	16r	16r	16r
16G	16g	16dd	16bb-
4A	4f	4a	4dd
4AA	4e	4g	8.cc#
.	.	.	32b
.	.	.	32cc#
=61	=61	=61	=61
4D	4.d	4f	4.dd
2.r	.	2.r	.
.	8f	.	8ff
.	4.B-	.	4.b-
.	8d	.	8dd
=62	=62	=62	=62
1r	4.G	1r	4.g
.	8b-	.	8bb-
.	4.e	.	4.ee
.	8g	.	8gg
=63	=63	=63	=63
1F	4f	4r	2.ff
.	4a	4cc	.
.	4g	4b-	.
.	4f	4a	8ff
.	.	.	16ee
.	.	.	16dd
=64	=64	=64	=64
4G	4e	4b-	4cc
4B-	4e	4g	2cc
4A	4f	4a	.
4E	4g	4b-	4cc
=65	=65	=65	=65
[2F	2f	2a	4.ccc
.	.	.	8aa
4F]	4a	4cc	4ff
4r	4r	4r	4r
=66	=66	=66	=66
2D	1A	2d	2f
2C	.	2e-	2f#
=67	=67	=67	=67
[2BB-	4.B-	[2d	4.g
.	16G	.	16b-
.	16A	.	16a
4BB-]	4B-	4d]	4g
4r	4r	4r	4r
=68	=68	=68	=68
2G	1d	2b-	1r
2F	.	2b	.
=69	=69	=69	=69
2E	4g	4cc	16bb-
.	.	.	16aa
.	.	.	16gg
.	.	.	16ff
.	4c	4g	16ee
.	.	.	16dd
.	.	.	16cc
.	.	.	16b-
4F	4c	4f	16a
.	.	.	16g
.	.	.	16f
.	.	.	16e
4r	4r	4r	16d
.	.	.	16c
.	.	.	16B-
.	.	.	16A
=70	=70	=70	=70
2r	4.r	4.r	4G
.	.	.	2.r
.	8B-	8g	.
4GG	8d	8b-	.
.	8B-	8g	.
4C	8A	8f	.
.	8G	8e	.
=71	=71	=71	=71
2FF	4.A	4.f	2r
.	16c	16a	.
.	16B-	16g	.
4FF	4A	4f	16f
.	.	.	16a
.	.	.	16g
.	.	.	16b-
4r	4r	4r	16a
.	.	.	16cc
.	.	.	16b-
.	.	.	16dd
=72	=72	=72	=72
1FF	4a	2.ff	4cc
.	4c	.	4a
.	4B-	.	4g
.	4A	8ff	4f
.	.	16ee	.
.	.	16dd	.
=73	=73	=73	=73
4BB-	4G	4cc	4e
4GG	4B-	2cc	4e
4FF	4A	.	4f
4EE	4B-	4cc	4g
=74	=74	=74	=74
[2EE-	2A	4.ccc	2f
.	.	8aa	.
4EE-]	4c	4ff	4a
4r	4r	4r	4r
=75	=75	=75	=75
4r	1r	4.f	1r
4BB-	.	.	.
.	.	8d	.
4D	.	8B-	.
.	.	8B-	.
4BB-	.	8B-	.
.	.	8B-	.
=76	=76	=76	=76
4r	4.g	1B-	1r
4E-	.	.	.
.	8e-	.	.
4G	8c	.	.
.	8c	.	.
4E	8c	.	.
.	8c	.	.
=77	=77	=77	=77
4F	4c	4A	4.cc
4A	4c	2.r	.
.	.	.	8a
4B-	4d	.	8f
.	.	.	8f
4c	4e-	.	8f
.	.	.	8f
=78	=78	=78	=78
4c	4e-	4.ff	4a-
4B	2d	.	4g
.	.	8dd	.
4G	.	8b	2r
.	.	8b	.
4F	4g	8b	.
.	.	8b	.
=79	=79	=79	=79
4E-	4c	4cc	4.gg
4C	2.r	2g	.
.	.	.	8ee-
4E-	.	.	8cc
.	.	.	8cc
4A-	.	4e-	8cc
.	.	.	8cc
=80	=80	=80	=80
4F#	4.a	4d	2cc
4F#	.	4.dd	.
.	8d	.	.
4G	8g	.	2b
.	8g	16ee	.
.	.	16ff	.
4F	8g	8ee	.
.	8g	8dd	.
=81	=81	=81	=81
4E	4.g	8dd	2b-
.	.	8cc	.
4E	.	4.cc	.
.	8c	.	.
4F	8f	.	[2a
.	8f	8ff	.
4E	8f	8aa	.
.	8f	8cc	.
=82	=82	=82	=82
4D	4.f	8cc	4a]
.	.	8b-	.
4D	.	4.b-	4aa
.	8B-	.	.
4E	8c	.	8gg
.	8c	8b-	8dd
4E	8c	8a	8cc
.	8c	8g	8b-
=83	=83	=83	=83
4F	4c	8g	8b-
.	.	8f	8a
4F	16c	2f	2a
.	16B	.	.
.	16c	.	.
.	16d	.	.
4F	4c	.	.
4E	4e	4g	4cc
=84	=84	=84	=84
1D	2.B	8.f	8.ff
.	.	32g	32gg
.	.	32a	32aa
.	.	8g	8gg
.	.	8f	8ff
.	.	8e	8ee
.	.	8d	8dd
.	4F	8c	8cc
.	.	8B	8b
=85	=85	=85	=85
2C	2F	2B	2b
4CC	4E	4c	4cc
4r	4r	4r	4r
=86	=86	=86	=86
1r	1r	8.c	8.cc
.	.	16B	16b
.	.	8.c	8.cc
.	.	16B	16b
.	.	8.c	8.cc
.	.	16B	16b
.	.	8.c	8.cc
.	.	16B	16b
=87	=87	=87	=87
4FF	4A	8.c	8.cc
.	.	16B	16b
4EE	4B-	8.c	8.cc
.	.	16B	16b
4r	4r	8.c	8.cc
.	.	16B	16b
4GG	4G	8.c	8.cc
.	.	16B	16b
=88	=88	=88	=88
2AA	2F	8.c	8.cc
.	.	16B	16b
.	.	8.c	8.cc
.	.	16B	16b
4BB-	4E	8.c	8.cc
.	.	16B	16b
4GG	4G	8.c	8.cc
.	.	16B	16b
=89	=89	=89	=89
4FF	4A	8.c	8.cc
.	.	16B	16b
4EE	4B-	8.c	8.cc
.	.	16B	16b
4r	4r	8.c	8.cc
.	.	16B	16b
4GG	4G	8.c	8.cc
.	.	16B	16b
=90	=90	=90	=90
2AA	2F	8.c	8.cc
.	.	16B	16b
.	.	8.c	8.cc
.	.	16B	16b
4BB-	4E	8.c	8.cc
.	.	16B	16b
4AA	4F	8.c	8.cc
.	.	16c	16cc
=91	=91	=91	=91
4F#	4A	8.d	8.dd
.	.	16c#	16cc#
4G	4B-	8.d	8.dd
.	.	16d	16dd
4E	4G	8.c	8.cc
.	.	16B	16b
4F	4A	8.c	8.cc
.	.	16c	16cc
=92	=92	=92	=92
4D	4F	8.B-	8.b-
.	.	16A	16a
4E	4G	8.B-	8.b-
.	.	16B-	16b-
4C#	4E	8.A	8.a
.	.	16G#	16g#
4D	4F	8.A	8.a
.	.	16A	16a
=93	=93	=93	=93
2BB-	2D	4.G	4.g
.	.	16A	16a
.	.	16B-	16b-
2C	[2C	4A	4f
.	.	4G	4e
=94	=94	=94	=94
1FF	2C]	2A	8.f
.	.	.	16e
.	.	.	8.f
.	.	.	16f
.	[2A	[2c	8.e-
.	.	.	16d
.	.	.	8.e-
.	.	.	16e-
=95	=95	=95	=95
4FF#	4A]	4c]	8.d
.	.	.	16c#
4GG	2G	2B-	8.d
.	.	.	16d
4EE	.	.	8.c
.	.	.	16B
4FF	[4F	[4A	8.c
.	.	.	16c
=96	=96	=96	=96
4DD	4F]	4A]	8.B-
.	.	.	16A
4EE	4E	4G	8.B-
.	.	.	16B-
4CC#	4G	4e	8.A
.	.	.	16G#
4DD	4F	4d	8.A
.	.	.	16A
=97	=97	=97	=97
4r	2B-	2d	4.G
4BB-	.	.	.
.	.	.	16d
.	.	.	16g
4C	4A	4c	4f
4CC	4G	4B-	4e
=98	=98	=98	=98
4FF	4F	4A	4a
4F	4A	8r	8r
.	.	8A	8a
4r	4r	8B-	8b-
.	.	8c	8cc
4F	4A	8r	8r
.	.	8d	8dd
=99	=99	=99	=99
4r	4r	8B	8b
.	.	8c	8cc
4E	4G	8r	8r
.	.	8G	8g
4r	4r	8A	8a
.	.	8B-	8b-
4C	4E	8r	8r
.	.	8c	8cc
=100	=100	=100	=100
4r	4r	8G#	8g#
.	.	8A	8a
4D	4F	8r	8r
.	.	8f	8ff
4r	4r	8c#	8cc#
.	.	8d	8dd
4BB-	4d	8r	8r
.	.	8f	8ff
=101	=101	=101	=101
4r	4.r	8B	8b
.	.	8c	8cc
4C	.	8r	8r
.	8F	8A	8a
4r	8A	8c	8cc
.	4G	4B-	4b-
4CC	.	.	.
.	8E	8G	8g
=102	=102	=102	=102
4FF	4F	8A	8f
.	.	8c	8ff
4r	4c	8f	8aa
.	.	8g	8bb-
4FF#	4r	8a	8ccc
.	.	8g	8bb-
4r	4d	8a	8ccc
.	.	8f#	8ddd
=103	=103	=103	=103
4GG	4r	8g	8bb-
.	.	8cc	8ff#
4r	4d	8b-	8gg
.	.	8f#	8aa
4C	4r	8g	8bb-
.	.	8f	8ddd
4r	4G	8e	8ccc
.	.	8g	8bb-
=104	=104	=104	=104
4FF	4r	8f	8aa
.	.	8b-	8ee
4r	4c	8a	8ff
.	.	8e	8gg
4F	4r	8f	8aa
.	.	8a	8ccc
4r	4d	8dd	8bb-
.	.	8cc	8aa
=105	=105	=105	=105
4B-	4r	8b-	8gg
.	.	8dd	8bb-
4B-	4d	8cc	8aa
.	.	8b-	8gg
4c	2c	8a	8ff
.	.	8b-	8gg
4C	.	8a	8ff
.	.	8g	8ee
=106	=106	=106	=106
4F	4f	12a	12ff
.	.	12e	12gg
.	.	12f	12aa
4r	4B-	12g	12bb-
.	.	12a	12ccc
.	.	12b-	12ddd
4c	4c	12a	12ccc
.	.	12b-	12ddd
.	.	12a	12ccc
4C	4c	12g	12bb-
.	.	12f	12aa
.	.	12e	12gg
=107	=107	=107	=107
4F	12A	12f	12ff
.	12G	12e	12gg
.	12F	12f	12aa
4r	12d	12g	12bb-
.	12c	12a	12ccc
.	12B-	12b-	12ddd
4c	4c	12a	12ccc
.	.	12b-	12bb-
.	.	12cc	12aa
4C	4c	12b-	12gg
.	.	12a	12ff
.	.	12g	12ee
=108	=108	=108	=108
[2FF	2B-	2g	2ee
8FF]	8A	8f	8ff
4.r	4.r	4.r	4.r
==	==	==	==
*-	*-	*-	*-
!!!RWG1: This file contains only pitch and duration data.
!!!RWG2: Transposing instruments are not transposed.
!!!RWG3: Spines may have incompatible meters.
!!!RWG4: Durations of rests and tied notes may be interpreted.
!!!RWG: Key is interpreted using the Humdrum key tool.
!!!AFT: stage1
!!!END: 1997/04/15
!!!KEY: 520763159
!!!EMD: Converted from MuseData to Humdrum Dec 16, 2000, by Andreas Kornstaedt using muse2kern.
!!!EMD: Manual editing by Craig Sapp, Nov 2001
